X: 348
T: the Ladies of Dingwall
C: N Morrison
R: reel
Z: 2019 John Chambers <jc:trillian.mit.edu>
B: RSCDS "Originally Ours" p.182
M: C|
L: 1/8
K: D
A "A"|\
"D"d2fa "(Bm)"fedf | "Em"geBe "A7"dcBA |\
[1 "D"d2fa "(Bm)"fedf | "A7"gedc "D"d2d :|\
[2 "D"dfaf "Em"bged | "A7"ceAc "D"d2d |]
A "B1"|\
"D"FDFA "Em"GEGB | "D"FDFg "A7"fdAG |\
"D"FDFA "Em"GEGg | "A7"fedc "D"d2d |]
A "B2"|\
"D"FAFA "G(Em)"GBGB | "D"FA[dD]g "A7"fdAG |\
"D"FA"G"GB "D"Fd"Em"Eg | "A7"faAc "D"d2d |]

%%sep 1 1 500

